X: 1
T: the Stone Frigate
C: Pipe Major Donald M Carrigan 1983
N: The composer's name is often spelled "Kerrigan"
R: reel
Z: 2012 John Chambers <jc:trillian.mit.edu>
S: printed MS of unknown origin from Nora Smith
D: Capercaille "Crosswinds" 1987 Green Linnet SIF 1077
D: Alasdair Gillies CD
M: C|
L: 1/8
K: D
"A"[|]\
B |\
"D"AddA d2Ad | AddG "G"B2dB |\
"D"AddA "Bm"dABd | "Em"feef "A7"e2ef |\
"D"AddA d2Ad | AddG "G"B2dB |
"D"AddA "Em"BeeB | "A7"caac "D"d2d "B1":|\
g |\
"D"faaf a2fa | aAAG "G"B2dB |\
"D"AddA "Bm"dABd | "Em"feef "A7"e2eg |
"D"faaf a2fa | aAAG "G"B2dB |\
"D"AddA "Em"GeeB | "A7"caac "D"d2d "B2"|]\
g |\
"D"faaf a2fa | aAAG "G"B2dB |
"D"AddA "Bm"dABd | "Em"feef "A7"e2ef |\
"D"AddA d2Ad | AddG "G"B2dB |\
"D"AddA "Em"BGed | "A7"cAac "D"d2d |]
